overrides/.icons/aoe/line.svg

<?xml version="1.0" encoding="UTF-8" standalone="no"?>
<svg
   viewBox="0 0 24 24"
   version="1.1"
   id="svg1"
   sodipodi:docname="line.svg"
   inkscape:version="1.3.2 (091e20e, 2023-11-25, custom)"
   xmlns:inkscape="http://www.inkscape.org/namespaces/inkscape"
   xmlns:sodipodi="http://sodipodi.sourceforge.net/DTD/sodipodi-0.dtd"
   xmlns="http://www.w3.org/2000/svg"
   xmlns:svg="http://www.w3.org/2000/svg">
  <defs
     id="defs1" />
  <sodipodi:namedview
     id="namedview1"
     pagecolor="#ffffff"
     bordercolor="#111111"
     borderopacity="1"
     inkscape:showpageshadow="0"
     inkscape:pageopacity="0"
     inkscape:pagecheckerboard="1"
     inkscape:deskcolor="#d1d1d1"
     inkscape:zoom="21.625"
     inkscape:cx="11.976879"
     inkscape:cy="12"
     inkscape:window-width="1366"
     inkscape:window-height="697"
     inkscape:window-x="-8"
     inkscape:window-y="-8"
     inkscape:window-maximized="1"
     inkscape:current-layer="svg1" />
  <path
     d="M 15.499999,1.4999995 V 6.8549997 L 6.8549998,15.499999 H 1.4999996 V 22.5 H 8.4999995 V 17.156666 L 17.156666,8.4999994 H 22.5 V 1.4999995 m -4.666667,2.3333334 h 2.333333 v 2.3333334 h -2.333333 m -14,11.6666667 h 2.3333334 v 2.333333 H 3.833333"
     id="path1"
     style="stroke-width:1" />
</svg>

<?xml version="1.0" encoding="UTF-8"?>
<svg id="svg1" version="1.1" viewBox="0 0 24 24" xmlns="http://www.w3.org/2000/svg">
 <path id="path1" d="m15.5 1.5v5.355l-8.645 8.645h-5.355v7h7v-5.3433l8.6567-8.6567h5.3433v-7m-4.6667 2.3333h2.3333v2.3333h-2.3333m-14 11.667h2.3333v2.3333h-2.3333"/>
</svg>
